X:1
T:That Dahm Rag
T:That Dahm Rag
T:The Imp's Delight
T:By Phil J. Dahm "Chicago's own champion ragtime player"
T:Published by Phil J. Dahm, 1912
T:Published by Phil J. Dahm, 1912
T:Published by Phil J. Dahm, 1912
T:Published by Phil J. Dahm, 1912
C:Phil J. Dahm
Z:Published by Phil J. Dahm, 1912
%%score { ( 1 3 ) | 2 }
L:1/8
Q:1/4=70
M:2/4
K:G
V:1 treble nm="Piano" snm="Pno."
V:3 treble 
V:2 bass 
V:1
"^Very slow"!f! F,/"_cresc."G,/D/^A,/ B,/G/^C/D/ | F/G/d/^A/ B/g/^c/d/ | %2
!ff! !>![FAcf]!>![=FAc=f]!<(!!>![EAce]!>![_EAc_e]!<)! | [DAcd]z[dfac'd'] z |: %4
!mf! F,/G,/D/^A,/!<(! B,/G/^C/D/!<)! | [B,B]/F/G/[DBd]/- [DBd]G/A/ | %6
!mf! [B,DB]/G/A/!>![B,DB]/- [B,DB]/A/[B,G] | [E,E]3 E/F/ | [CF]/E/D/!>![CF]/- [CF]/E/[CD] | %9
 F,3 G,/A,/ | B,/A,/G,/B,/- B,/A,/G, |[K:bass] D,2- D, z | %12
[K:treble][K:treble] F,/G,/!<(!D/^A,/ B,/G/^C/!<)!D/ | [B,B]/F/G/!>![DBd]/- [DBd]G/A/ | %14
 [B,DB]/G/A/!>![B,DB]/- [B,DB]/A/[B,G] | [E,E]3 d/^d/ | [Ede]/[=Fd=f][Ede]/- [Ede]/d/B | %17
 [^CGA]/[CGB][CGA]/- [CGA]/G/[CE] | [CD]/E/F/[Fd]/- [Fd]/c/A ||1 [B,DG] z [DFcd] z :|2!f! G z z2 |: %21
[K:D]!f! z [dfb]/>a/ [db]/>a/[db]/>a/ | [Acf]/[Ace][Acga]/- [Acga] z | %23
 z [dfb]/>a/ [db]/>a/[db]/>a/ | [Acf]/[Ace][Acga]/- [Acga] z | z [dfb]/>a/ [db]/>a/[db]/>a/ | %26
 [F^Af]/[FAe][FBd]/- [FBd] z | z [^Gdf]/>e/ [Gdf]/<[Gde]/ z | z [cgb]/>a/ [cgb]/<[cga]/ z | %29
 z [dfb]/>a/ [db]/>a/[db]/>a/ | [Acf]/[Ace][Acga]/- [Acga] z | z [dfb]/>a/ [dfb]/[=cfa][dd']/- | %32
 [dd']2- [dd']!>![Ee]/>!>![Dd]/ | !>![Ee]/<!>![Dd]/ z z !>![Ee]/>!>![Dd]/ | %34
 !>![Ee]/<!>![Dd]/ z z [Ada]/>[^Ad^a]/ | [Bb][Aa] [FAf][EGe] |1 [DFd] z z2 :|2 %37
 [DFd]2!8va(! [dfa=c'd'] z!8va)! ||[K:G]!f! F/G/d/^A/!<(! B/g/^c/d/!<)! | %39
 [Bb]/f/g/!>![dbd']/- [dbd']g/a/ | [Bdb]/g/a/!>![Bdb]/- [Bdb]/a/[Bg] | [Ee]3 d/e/ | %42
 [Fcf]/e/d/!>![Fcf]/- [Fcf]/e/[Fd] | [DF]3 G/A/ | [DB]/A/G/!>![DB]/- [DB]/A/[B,G] | D2- D z | %46
[K:treble] F/G/d/^A/!<(! B/g/^c/d/!<)! | [Bb]/f/g/!>![dbd']/- [dbd']g/a/ | %48
 [Bdb]/g/a/!>![Bdb]/- [Bdb]/a/[Bg] | [Ee]3!ff! [Dd]/^d/ | [Ede]/[=Fd=f][Ede]/- [Ede]/d/B | %51
 [^CGA]/[CGB][CGA]/- [CGA]/G/[CE] | [=CD]/E/F/[Fd]/- [Fd]/c/A | [B,DG] z [GBdg] ||[K:C] z | %55
 z2 !>![Fcdf]!>![Fcdf] | B/A/G z2 | z2 !>![Fcdf]!>![Fcdf] | B/A/G z2 | ^G[GB][GBd]<[GBdf] | %60
 B[Bd][Bdf]<[Bdf_a] | [Bdfg]!8va(!z[bd'f'g']!8va)! z | z4 |: %63
[K:C]!p!!f!"_-" [Ec][Fd]/[Ge]/- [Ge]/[Fd]/[Ec] | [DB][Ec]/[Fd]/- [Fd]/[Ec]/[DB] | %65
 [CA][DB]/[Ec]/- [Ec]/[DB]/[C_EA] | [C=EG]2 z2 | [^GB]c/[Gd]/- [Gd]/e/[Gdf] | [Ece]<[Ec] [Ec] z | %69
 [^GB]c/[Gd]/- [Gd]/e/[Gdf] | [Ece]<[Ec] [Ec] z | z [^Fcd]/>[Fe]/ [Fd]/>c/[FA] | %72
 z [^Fcd]/>[Fe]/ [Fd]/>c/[FA] | [B,DG]z[G^Ae] z | [GBf]z!>![GBfg] z | %75
 [Ec][Fd]/[Ge]/- [Ge]/[Fd]/[Ec] | [DB][Ec]/[Fd]/- [Fd]/[Ec]/[DB] | %77
 [CA][DB]/[Ec]/- [Ec]/[DB]/[C_EA] | G2- G/^F/G/^G/ | [^CEGA][A^cga][Acg][GAce] | %80
 [D^FAcd]/c/d/e/ [Fd]/c/[FA] | [DFG]/[DF^G][DFA]/- [DFA]/[DF^A]/[DFB]/[EBe]/ |1 [EGc]GAB :|2 %83
 [EGc] z [CEGc] z |] %84
V:2
 F,,/G,,/D,/^A,,/ B,,/G,/^C,/D,/ | F,/G,/D/^A,/ B,/G/^C/D/ | %2
 !>![D,,D,]!>![^D,,^D,]!>![E,,E,]!>![^E,,^E,] | [F,,F,]z[D,,,D,,] z |: %4
 F,,/G,,/D,/^A,,/ B,,/G,/^C,/D,/ | [G,,G,][D,G,B,] [D,,D,][D,G,B,] | [G,,G,][D,G,] [D,,D,][D,G,] | %7
 [G,,G,]2 [B,,,B,,][_B,,,_B,,] | [A,,,A,,][D,F,A,] [D,,D,][D,F,A,] | %9
 [A,,,A,,][A,,C,D,] [A,,C,D,]!>![D,,D,] | !>![G,,G,]D, [D,,D,][B,,D,] | G,,F,, E,,D,, | %12
 F,,/G,,/D,/^A,,/ B,,/G,/^C,/D,/ | [G,,G,][D,G,B,] [D,,D,][D,G,B,] | [G,,G,][D,G,] [D,,D,][D,G,] | %15
 [G,,,G,,]2 [B,,B,][A,,A,] | [^G,,^G,][E,G,D] [E,,E,][E,G,D] | [E,,E,][E,G,A,] [A,,A,][E,G,A,] | %18
 [F,,F,][D,F,C] [D,,D,][D,F,C] ||1 [G,,G,] z !>![D,,A,,D,] z :|2 %20
 !>![G,,G,]!>![A,,,A,,]!>![B,,,B,,]!>![^C,,^C,] |:[K:D] [D,,D,][F,A,D] [F,,F,][=F,,=F,] | %22
 [E,,D,][G,A,C] [G,A,C] (3!>![A,,,A,,]/!>![B,,,B,,]/!>![C,,C,]/ | [D,,D,][F,A,D] [F,,F,][=F,,=F,] | %24
 [E,,D,][G,A,C] [G,A,C] (3!>![A,,,A,,]/!>![B,,,B,,]/!>![C,,C,]/ | [D,,D,][F,A,D] [F,,F,][F,A,D] | %26
 [C,,C,][E,F,^A,] z/ !>![B,,,B,,]/!>![C,,C,]/!>![D,,D,]/ | %27
 !>![E,,E,] z z/ [B,,,B,,]/[C,,C,]/[D,,D,]/ | E,, z z/ !>![A,,,A,,]/!>![B,,,B,,]/!>![C,,C,]/ | %29
 [D,,D,][F,A,D] [F,,F,][=F,,=F,] | [E,,D,][G,A,C] z/ !>![A,,,A,,]/!>![B,,,B,,]/!>![C,,C,]/ | %31
 !>![D,,D,][D,F,=C] [D,,D,][D,F,C] | [G,,G,][A,,A,] [B,,B,] z | %33
 z !>![E,E]/>!>![D,D]/ !>![E,E]/<!>![D,D]/ z | %34
 z !>![E,E]/>!>![D,D]/ !>![E,E]/<!>![D,D]/ [=F,,=F,] | [E,,E,][G,A,C] [A,,A,][G,A,C] |1 %36
 [D,,D,][A,,,A,,] [B,,,B,,][C,,C,] :|2 [D,,D,]2 [D,,D,] z ||[K:G] F,/G,/D/^A,/ B,/G/^C/D/ | %39
 [G,,G,][D,G,B,] [D,,D,][D,G,B,] | [G,,G,][D,G,B,] [D,,D,][D,G,B,] | [G,,G,]2 [B,,B,][_B,,_B,] | %42
 [A,,A,][D,F,C] [D,,D,][D,F,C] | [A,,A,][D,F,C] [D,F,C]!>![D,,D,] | %44
 [G,,G,][D,G,B,] [D,,D,][D,G,B,] | [G,,G,][F,,F,][E,,E,][D,,D,] | F,/G,/D/^A,/ B,/G/^C/D/ | %47
 [G,,G,][D,G,B,] [D,,D,][D,G,B,] | [G,,G,][D,G,B,] [D,,D,][D,G,B,] | [G,,G,]2 [B,,B,][A,,A,] | %50
 [^G,,^G,][E,G,D] [E,,E,][E,G,D] | [E,,E,][E,G,A,] [A,,A,][E,G,A,] | %52
 [F,,F,][D,F,=C] [D,,D,][D,F,C] | [G,,G,] z [G,,G,] ||[K:C] [G,,G,] | [_A,,_A,]2 z2 | %56
 x2 !>!B,,/!>!A,,/!>!G,, | [_A,,_A,]2 z2 | x2 !>!B,,/!>!A,,/!>!G,, | [^G,B,D][B,D][G,D]<F | %60
[K:treble] [B,DF][DF]F<_A |[K:bass][K:treble] Gz[G,G] z | %62
[K:bass] [G,,G,]z!8vb(![G,,,G,,] z!8vb)! |:[K:C] C,[E,G,C] G,,[E,G,C] | %64
 ^G,,[E,^G,D] [E,,E,][E,G,B,] | [A,,A,][E,A,C] [E,,E,][^F,,^F,] | %66
 [G,,G,][G,,G,] [^F,,^F,][=F,,=F,] | [E,,E,][E,^G,D] [E,,E,][E,G,D] | %68
 [A,,A,][E,A,C] z !>![^D,,^D,] | [E,,E,][E,^G,D] [E,,E,][E,G,D] | [A,,A,][E,A,C] z !>![^D,,^D,] | %71
 [=D,,=D,][D,^F,C] [D,F,C][A,,,A,,] | [D,,D,][D,^F,C] [D,F,C][A,,,A,,] | [G,,G,]z[^C,,^C,] z | %74
 [D,,D,]z[G,,,G,,] z | C,[E,G,C] G,,[E,G,C] | ^G,,[E,^G,D] [E,,E,][E,G,B,] | %77
 [A,,A,][E,A,C] [E,,E,][^F,,^F,] | [G,,G,]2 [C,,C,][_B,,,_B,,] | [A,,,A,,]2 [G,,,G,,]2 | %80
 [^F,,,^F,,][D,^F,C] [D,,D,][D,F,C] | [B,,B,]/[_B,,_B,][A,,A,]/- [A,,A,]/[_A,,_A,]/[G,,G,] |1 %82
 [C,C]!>![G,,G,]!>![A,,A,]!>![B,,B,] :|2 [C,C] z !>![C,,C,] z |] %84
V:3
 x4 | x4 | x4 | x4 |: x4 | x4 | x4 | z [G,B,][G,B,] z | x4 | x4 | x4 |[K:bass] z B,, [G,,B,,] x | %12
[K:treble][K:treble] x4 | x4 | x4 | z [G,B,][EG] x | x4 | x4 | x4 ||1 x4 :|2 x4 |:[K:D] x4 | x4 | %23
 x4 | x4 | x4 | x4 | x4 | x4 | x4 | x4 | x4 | [gb][f=c'][gb] x | x4 | x4 | x4 |1 x4 :|2 %37
 x2!8va(! x2!8va)! ||[K:G] x4 | x4 | x4 | z [GB][GB] z | x4 | x4 | x4 | z B,[G,B,] z | %46
[K:treble] x4 | x4 | x4 | z [EG][EG] x | x4 | x4 | x4 | x3 ||[K:C] x | x4 | [DF][DF] x2 | x4 | %58
 [DF][DF] x2 | x4 | x4 | x!8va(! x2!8va)! x | x4 |:[K:C] x4 | x4 | x4 | x4 | x4 | x4 | x4 | x4 | %71
 x4 | x4 | x4 | x4 | x4 | x4 | x4 | z [C=E][CE] [DE] | x4 | x4 | x4 |1 x4 :|2 x4 |] %84

